docs/local/img/sprites/addr.svg

<svg width="24" height="24" viewBox="0 0 24 24" xmlns="http://www.w3.org/2000/svg">
<path d="M2.48363 5.99799L2.48372 5.99793L9.4826 1.27402C9.48264 1.27399 9.48268 1.27396 9.48272 1.27393C11.0125 0.242147 12.9868 0.242022 14.5167 1.27356C14.5169 1.27371 14.5172 1.27386 14.5174 1.27402L21.7082 6.15872C22.5992 6.83684 23.2247 7.82182 23.4252 8.91383L23.4253 8.91406C23.4752 9.18516 23.2962 9.44563 23.0236 9.49573L23.0201 9.49639C22.7543 9.54721 22.4925 9.36978 22.4417 9.09394L22.4417 9.0939C22.2724 8.175 21.7331 7.35021 20.9577 6.82702L13.9581 2.1033C12.7699 1.2999 11.2311 1.2999 10.0429 2.1033L3.04233 6.82703L3.04223 6.8271C2.07677 7.4789 1.5 8.56207 1.5 9.7275V19.0035C1.5 20.9336 3.06986 22.5035 5 22.5035H9C9.27553 22.5035 9.5 22.7273 9.5 23.0045C9.5 23.281 9.27618 23.5045 9 23.5045H5C2.51914 23.5045 0.5 21.4854 0.5 19.0045V9.7285C0.5 8.22978 1.24135 6.83609 2.48363 5.99799ZM17.6347 18.9698L17.6347 18.9698L17.6298 18.9746C17.2768 19.3229 16.8064 19.5015 16.328 19.5015C15.8497 19.5015 15.3743 19.3229 15.0136 18.9701L13.8819 17.8623C13.6838 17.6683 13.6807 17.3528 13.8742 17.1554C14.068 16.9576 14.3848 16.9548 14.5816 17.1471L15.7119 18.2535C15.7121 18.2537 15.7123 18.2539 15.7124 18.254C16.0475 18.5839 16.5936 18.5913 16.9342 18.2553L19.1542 16.1242C19.353 15.9334 19.6705 15.94 19.8613 16.1387L19.8617 16.1392C20.052 16.337 20.0466 16.6534 19.8465 16.8461C19.8464 16.8461 19.8464 16.8462 19.8463 16.8462L17.6347 18.9698ZM23.5 17.0045C23.5 20.5874 20.5838 23.5045 17 23.5045C13.4162 23.5045 10.5 20.5874 10.5 17.0045C10.5 13.4216 13.4162 10.5045 17 10.5045C20.5838 10.5045 23.5 13.4216 23.5 17.0045ZM22.5 17.0045C22.5 13.9714 20.0331 11.5045 17 11.5045C13.9669 11.5045 11.5 13.9714 11.5 17.0045C11.5 20.0376 13.9669 22.5045 17 22.5045C20.0331 22.5045 22.5 20.0376 22.5 17.0045Z"/>
</svg>

<svg width="24" height="24" viewBox="0 0 24 24" xmlns="http://www.w3.org/2000/svg"><path d="M2.484 5.998l6.999-4.724a4.48 4.48 0 015.034 0l7.191 4.885a4.515 4.515 0 011.717 2.755.5.5 0 01-.401.582h-.004a.497.497 0 01-.578-.402 3.516 3.516 0 00-1.484-2.267l-7-4.724a3.481 3.481 0 00-3.915 0l-7 4.724a3.494 3.494 0 00-1.543 2.9v9.276c0 1.93 1.57 3.5 3.5 3.5h4a.5.5 0 010 1.002H5c-2.48 0-4.5-2.02-4.5-4.5V9.729c0-1.5.741-2.893 1.984-3.731zm15.15 12.972l-.004.005a1.847 1.847 0 01-1.302.526c-.478 0-.954-.178-1.314-.53l-1.132-1.109a.5.5 0 01.7-.715l1.13 1.106v.001a.872.872 0 001.222.001l2.22-2.13a.5.5 0 11.692.722l-2.211 2.123zm5.866-1.965c0 3.582-2.916 6.5-6.5 6.5a6.508 6.508 0 01-6.5-6.5c0-3.583 2.916-6.5 6.5-6.5s6.5 2.917 6.5 6.5zm-1 0c0-3.034-2.467-5.5-5.5-5.5a5.506 5.506 0 00-5.5 5.5c0 3.033 2.467 5.5 5.5 5.5s5.5-2.467 5.5-5.5z"/></svg>
